X:147
T:Cottar's Wife, The
R:Reel
B:The Athole Collection
M:C|
L:1/8
K:D
B|A/A/A ed e2 ag|e2gd BGGB|A/A/A ed e2 ag|e2dB eAAB|
A/A/A ag a2 bg|e2gd BGGB|A/A/A ag a2 bg|e2dB eAA||
B|cAec A/A/A ed|cAec BGGB|cAec A/A/A ed|cABG A2AB|
cAec A/A/A ed|cAec BGGB|cAec A/A/A ea|cAB^G A2A||

